dist/svg/more.svg

<!-- Generated by Trend Micro Style Portal -->
<svg version="1.1" xmlns="http://www.w3.org/2000/svg" width="16" height="16" viewBox="0 0 16 16">
  <title>more</title>
  <path fill="rgb(34,34,34)" d="M9 4h-3v-3h3zM9 6h-3v3h3zM9 11h-3v3h3z"></path>
</svg>

<svg width="16" height="16" viewBox="0 0 16 16" fill="rgb(34, 34, 34)" xmlns="http://www.w3.org/2000/svg"><title>more</title><path d="M9 4H6V1H9V4ZM9 6H6V9H9V6ZM9 11H6V14H9V11Z" fill="rgb(34, 34, 34)" fill-opacity="1.00"/></svg>
